X:999
T:Francis Wright's Waltz
C:Joe Buchanan's Scottish Tome - Page 585.0
I:585 0
Z:Carl Allison
C:Jimmy Shands
R:Waltz
L:1/4
M:3/4
K:G
D | D G/c/ E | D G/B/ G | F>D G/B/ | G3 | x3 | x3 | x3 | x3 |
%%vskip 20
D |: G>A B | G D D | E C A | F2 D | G>A B/c/ | d B G | e>d c/B/ | A2 B/c/ | 
d B d | c B A | G F E | D2 D | E G/c/ E | D G/B/ G | F>D F/A/ | G3 :| [K:D] 
F/A/ | A2 B/A/ | A d A | A2 B/A/ | c2 A | A2 B A | A e A | A2 B/A/ | F2 D/F/ | 
A2 B/2A/2 | A d d | d c _c | B3 | d>d e/d/ | f A d | c>c A/ c/e/ | d3 :| [K:G]
D | G>A B | G D D | E C A | F2 D | G>A B/c/ | d B G | e>d c/B/ | A2 B/c/ | 
d B d | c B A | G F E | D2 D | E G/c/ E | D G/B/ G | F>D F/A/ | G3 :| [K:C]
E/F/ | G>^F G/A/ | G E C | G A G | F3 | F>E F/G/ | F E D | A G F | E2 C/E/ | 
G>^F G/A/ | G E C | c B _B | A3 | c>c d/c/ | e G c | B>G B/d/ | c3 :| [K:G]
D | G>A B | G D D | E C A | F2 D | G>A B/c/ | d B G | e>d c/B/ | A2 B/c/ | 
d B d | c B A | G F E | D2 D | E G/c/ E | D G/B/ G | F>D F/A/ | G3 |] 
%
W:Errata: Added repeat symbol to to first line after introduction.

